wp-content/themes/canvas/img/camera.svg

<svg height="20" viewBox="0 0 26 20" width="26" xmlns="http://www.w3.org/2000/svg"><path d="m39.0966797 22.96875c1.9628906 0 3.5595703 1.5966797 3.5595703 3.5888672v9.6386719c0 1.9921875-1.5966797 3.6474609-3.5595703 3.6474609h-3.6474609c.8349609-.46875 1.5527343-1.40625 2.109375-2.34375h1.5380859c.6738281 0 1.2158203-.6005859 1.2158203-1.3037109v-9.6386719c0-.703125-.5419922-1.2451172-1.2158203-1.2451172h-3.4863281l-1.6259766-2.8125h-7.8808594l-1.6552734 2.8125h-3.5449219c-.6738281 0-1.2158203.5419922-1.2158203 1.2451172v9.6386719c0 .703125.5419922 1.3037109 1.2158203 1.3037109h1.5380859c.5566407.9375 1.2744141 1.875 2.109375 2.34375h-3.6474609c-1.9628906 0-3.5595703-1.6552734-3.5595703-3.6474609v-9.6386719c0-1.9921875 1.5966797-3.5888672 3.5595703-3.5888672h2.2119141l1.6552734-2.8125h10.546875l1.640625 2.8125zm-9.0966797 16.875c-3.8818359 0-7.03125-3.1494141-7.03125-7.03125s3.1494141-7.03125 7.03125-7.03125 7.03125 3.1494141 7.03125 7.03125-3.1494141 7.03125-7.03125 7.03125zm0-11.8066406c-2.6367188 0-4.7753906 2.1386718-4.7753906 4.7753906s2.1386718 4.7753906 4.7753906 4.7753906 4.7753906-2.1386718 4.7753906-4.7753906-2.1386718-4.7753906-4.7753906-4.7753906z" fill="#93dddf" fill-rule="evenodd" transform="translate(-17 -20)"/></svg>

<?xml version="1.0" encoding="UTF-8"?>
<svg width="26px" height="20px" viewBox="0 0 26 20" version="1.1" xmlns="http://www.w3.org/2000/svg" xmlns:xlink="http://www.w3.org/1999/xlink">
    <!-- Generator: Sketch 51.2 (57519) - http://www.bohemiancoding.com/sketch -->
    <title>camera</title>
    <desc>Created with Sketch.</desc>
    <defs></defs>
    <g id="Page-1" stroke="none" stroke-width="1" fill="none" fill-rule="evenodd">
        <g id="Concept-Two" transform="translate(-1071.000000, -3482.000000)" fill="#93DDDF">
            <g id="Group-4-Copy" transform="translate(1054.000000, 3381.000000)">
                <g id="Group-Copy" transform="translate(0.000000, 81.000000)">
                    <path d="M39.0966797,22.96875 C41.0595703,22.96875 42.65625,24.5654297 42.65625,26.5576172 L42.65625,36.1962891 C42.65625,38.1884766 41.0595703,39.84375 39.0966797,39.84375 L35.4492188,39.84375 C36.2841797,39.375 37.0019531,38.4375 37.5585938,37.5 L39.0966797,37.5 C39.7705078,37.5 40.3125,36.8994141 40.3125,36.1962891 L40.3125,26.5576172 C40.3125,25.8544922 39.7705078,25.3125 39.0966797,25.3125 L35.6103516,25.3125 L33.984375,22.5 L26.1035156,22.5 L24.4482422,25.3125 L20.9033203,25.3125 C20.2294922,25.3125 19.6875,25.8544922 19.6875,26.5576172 L19.6875,36.1962891 C19.6875,36.8994141 20.2294922,37.5 20.9033203,37.5 L22.4414062,37.5 C22.9980469,38.4375 23.7158203,39.375 24.5507812,39.84375 L20.9033203,39.84375 C18.9404297,39.84375 17.34375,38.1884766 17.34375,36.1962891 L17.34375,26.5576172 C17.34375,24.5654297 18.9404297,22.96875 20.9033203,22.96875 L23.1152344,22.96875 L24.7705078,20.15625 L35.3173828,20.15625 L36.9580078,22.96875 L39.0966797,22.96875 Z M30,39.84375 C26.1181641,39.84375 22.96875,36.6943359 22.96875,32.8125 C22.96875,28.9306641 26.1181641,25.78125 30,25.78125 C33.8818359,25.78125 37.03125,28.9306641 37.03125,32.8125 C37.03125,36.6943359 33.8818359,39.84375 30,39.84375 Z M30,28.0371094 C27.3632812,28.0371094 25.2246094,30.1757812 25.2246094,32.8125 C25.2246094,35.4492188 27.3632812,37.5878906 30,37.5878906 C32.6367188,37.5878906 34.7753906,35.4492188 34.7753906,32.8125 C34.7753906,30.1757812 32.6367188,28.0371094 30,28.0371094 Z" id="camera"></path>
                </g>
            </g>
        </g>
    </g>
</svg>
